X:849
T:Atkin's Polka No.4
R:Polka
M:2/4
L:1/16
K:D
A2|ffff f2e2|(3efe d2 A4|cccc c2B2|(3BcB A2 F4|
ffff f2e2|(3efe d2 A4|cccc c2fe|d2f2 d2:|
|:f2|f2e2 d2F2|(3BcB A2 A4|G2E2 c3c|B2A2 f3f|
f2e2 d2F2|(3BcB A2 A4|G2E2 c3c|d2f2 d2:|
